X:1
T:That Means Me
T:That Means Me
T:Adam Geibel
T:Johnson Oatman, 1898
T:Public Domain Courtesy of the Cyber Hymnal™
C:Adam Geibel
Z:Public Domain
Z:Courtesy of the Cyber Hymnal™
%%score ( 1 2 ) ( 3 4 )
L:1/8
Q:1/4=130
M:4/4
K:F
V:1 treble 
V:2 treble 
V:3 bass 
V:4 bass 
V:1
 [Fc]2 | [Fc]2 [FA]2 [FA]2 [EG]2 | [FA]2 [Fc]4 [FA]2 | [CF]4 [DF]4 | [CF]6 [Fc]2 | %5
w: 1.~I|read that who- so-|ev- er May|from wrath|flee; God|
w: 2.~His|blood is ef- fi-|ca- cious, His|love is|free; To|
w: 3.~Christ|died for ev- ery|na- tion On|Cal- vary’s|tree; He|
w: 4.~I|read the pro- mise|giv- en, That|o’er death’s|sea We’ll|
 [Fc]2 [FA]2 [FA]2 [EG]2 | [FA]2 [Fc]4 [FA]2 | [EG]4 [Fd]4 | [Ec]6 ||"^Refrain" [Fc]2 | %10
w: will re- ject me|nev- er, For|that means|me.||
w: sin- ners He is|gra- cious, And|that means|me.||
w: died for our sal-|va- tion, And|that means|me.||
w: live with Him in|Hea- ven, And|that means|me.||
 [Fd]4 [Ff]4 | [Fc]6 [FA]2 | [GB]4 [Ec]4 | [FA]6 C2 | D2 E2 F2 G2 | A2 B2 c2 [Fd]2 | [FA]4 [EG]4 | %17
w: |||||||
w: |||||||
w: |||||||
w: |||||||
 F6 |] %18
w: |
w: |
w: |
w: |
V:2
 x2 | x8 | x8 | x8 | x8 | x8 | x8 | x8 | x6 || x2 | x8 | x8 | x8 | x6 C2 | D2 E2 F2 G2 | %15
 (A2 B2) c2 x2 | x8 | F6 |] %18
V:3
 [F,A,]2 | [F,A,]2 [F,C]2 [F,C]2 [C,C]2 | [F,C]2 [F,A,]4 [F,C]2 | [F,A,]4 [B,,B,]4 | %4
w: ~|~ ~ ~ ~|~ ~ ~|~ ~|
 [F,A,]6 [F,A,]2 | [F,A,]2 [F,C]2 [F,C]2 [C,C]2 | [F,C]2 [F,A,]4 [F,C]2 | [G,C]4 [G,=B,]4 | %8
w: ~ ~|~ ~ ~ ~|~ ~ ~|~ ~|
 [C,C]6 || [F,A,]2 | [B,,B,]4 [B,D]4 | [A,C]6 [F,C]2 | [E,C]4 [C,C]4 | [F,C]6 C,2 | %14
w: ~|For|that means|me, Yes|that means|me; When|
 D,2 E,2 F,2 G,2 | A,2 B,2 C2 [B,,D]2 | [C,C]4 [C,B,]4 | [F,A,]6 |] %18
w: I read who- so-|ev- er, Then that|means me.||
V:4
 x2 | x8 | x8 | x8 | x8 | x8 | x8 | x8 | x6 || x2 | x8 | x8 | x8 | x6 C,2 | D,2 E,2 F,2 G,2 | %15
 (A,2 B,2) C2 x2 | x8 | x6 |] %18

